X: 1
T: Hairy Dogleaf, The
M: 4/4
L: 1/8
R: reel
K: Dmaj
|:D2DB ADFA|(3BBB dB BAFA|DDDB ADFA|d{B}BAF DE(3EEE|
&quot;S&quot;DDDB ADFA|BBdB BAFA|(3BBB dB (3BAA FA|1 dBAF EDCE:|2 dBAF Egfe||
|:[D2d2](3ddd edfd|AB{d}BB BAFA|defd ef(3gee|afge (3fgf ec|
d2(3ddd edfd|ABBd BAFA|(3BBB dB (3BAA FA|1 dBAF Egfe:|2 dBAF EDCE||
